X: 14148
T: Frog's Frollic
R: jig
M: 6/8
K: Eminor
~E3 G2E|B2E G2E|F2D DEF|ABA FED|
~E3 G2E|B2E G2E|BcB AGA|BEE E3:|
gbg e2 e|gbg e2 a|faf d2 d|faf d2 d|
gbg e2 e|gbg e2 e|gfe bge|efe e2 e|
gbg e2 e|gbg e2 a|faf d2 d|faf d2 d|
efg fga|gab e2 e|BcB AGA|BEE E3||

